X:442
T:Polka from Charlie Lennon's Famine Suite
R:Polka
M:2/4
L:1/8
K:G
"G"dB "C"c>e|"G"dB "C"dB|"D7"A2 (d>c)|"D7"AB ce|
"G"DB "C"c>e|"G"dB "Am"cB|"D7"A2(d>c)|"G"AG G2::
"G"dB dg|"D"f2 fg|"C"e>d ef|"G"ed B>c|
"G"dB dg|"C"ec eg|"D"fa df|"G"ag g2:|
